X:1
T:Title
%%score { ( 1 3 ) | ( 2 4 ) }
L:1/8
M:4/4
K:Bb
V:1 treble nm="Grand Piano"
V:3 treble 
V:2 bass 
V:4 bass 
V:1
 z4 z2[Q:1/4=110] [DF]2 | [Fd]2 [Fc]2 [FB]2 [FA]2 | [FB]2 [Fc]2 [Fd]2 [Ge]2 | [Fd]4 c4 | %4
 [DB]6 [Fd]2 | [=Ec]2 [EG]2 [FA]2 [Fd]2 | [=Ec]2 [EG]2 [FA]2 [Fc]2 | [FB]2 [Fd]2 [=Ec]2 E2 | %8
 F6 z2 | F6 z2 | G2 G2 G2 z2 | G6 z2 | A2 A2 A2 z2 | [^FA]2 [FA][FA] [GB]2 [GB]2 | %14
 [Gc]2 [Gd]2 [Ge]2 [Gd]2 | [Gc]2 [Gc]2 [FB]2 [EA]2 |[M:3/4] [DB]6 |] %17
V:2
 z4 z2 [B,,B,]2 | [B,,B,]2 [C,A,]2 [D,B,]2 [E,C]2 | [D,B,]2 [F,A,]2 B,2 [E,B,]2 | z4 E4 | %4
 [B,,B,]6 [B,,B,]2 | [C,G,]2 [C,C]2 [F,C]2 [B,,B,]2 | [C,G,]2 [C,C]2 [F,C]2 [E,A,]2 | %7
 [D,B,]2 [B,,B,]2 [C,G,]2 [C,B,C]2 | [F,A,C]6 z2 | D6 z2 | [E,B,E]2 [E,B,E]2 [E,B,E]2 z2 | E6 z2 | %12
 [F,CF]2 [F,CF]2 [F,CF]2 z2 | [D,D]2 [D,D][D,D] [G,D]2 [G,D]2 | [E,C]2 [D,=B,]2 [C,C]2 [D,B,]2 | %15
 [E,C]2 [E,E]2 [F,D]2 [F,C]2 |[M:3/4] [B,,B,]6 |] %17
V:3
 x8 | x8 | x8 | z2 B,2 z2 A,2 | x8 | x8 | x8 | x8 | x8 | z4 B,2 [DF][DF] | x8 | z4 C2 [EG][EG] | %12
 x8 | x8 | x8 | x8 |[M:3/4] x6 |] %17
V:4
 x8 | x8 | x8 | [F,B,]2 F,2 [F,A,]2 F,2 | x8 | x8 | x8 | x8 | x8 | z4 B,,2 [B,,B,][B,,B,] | x8 | %11
 z4 C,2 [C,C][C,C] | x8 | x8 | x8 | x8 |[M:3/4] x6 |] %17

